!!!SOCIAL_FUNCTION:	harvest dance songs
!!!PDT:	1957
!!!OTL: No_38_The_Raingods_Are_Coming_Back.krn
!!!LING_GROUP: Keresan
!!!LANG: Tone
!!!REG: Southwest
**kern
*staff1
=1-
=
*clefF4
*k[f#c#g#d#a#]
*M2/4
8d#\L
8c#\J
4B\
=2
8d#\L
8c#\J
4c#\
=3
8d#\L
8c#\J
8c#\L
8B\J
=4
16B\LK
[8.G#\J
4G#\]
=5
8c#\L
8B\J
4B\
=6
4B\
8.G#\L
16G#\Jk
=7
4F#\
4G#\
=8
*M3/4
8G#\L
8F#\J
4F#\
4G#\
=9
*M2/4
12d#\L
12c#\
12c#\J
4c#\
=10
12c#\L
12B\
12B\J
8B\L
8B\J
=11
4G#\
4F#\
=12
*M3/4
4G#\
8G#\L
8F#\J
4E\
=13
*M2/4
8.F#\L
16F#\Jk
4F#\
=14
*M3/4
8B\L
8G#\J
8G#\L
8F#\J
4E\
=15
*M2/4
12F#\L
12F#\
12F#\J
4F#\
=16||
*k[f#c#g#]
8B\L
8A\J
4A\
=17
*M3/4
8c#\L
8B\J
4B\
8.A\L
16F#\Jk
=18
*M2/4
12B\L
12A\
12A\J
8F#\L
16F#\Jk
16r
=19
8B\L
8A\J
4B\
=20
4A\
4B\
=21
8B\L
8A\J
4A\
=22
4A\
4B\
=23
8B\L
8A\J
4A\
=24
4A\
4B\
=25
8B\L
8A\J
4A\
=26
4A\
4B\
=27
4B\
4B\
=28
8B\L
8A\J
4A\
=29
4B\
4B\
=30
*M3/4
8.A\L
16F#\Jk
12B\L
12A\
12A\J
8F#\
16r
16F#\
=31
*M2/4
4A\
8.A\L
16A\Jk
=32
8.F#\L
16F#\Jk
4F#\
=33
=
8F#\L
8F#\J
8F#\L
8F#\J
=34:|!
4F#\
4F#\
=35
2r
=36
4F#\
4f#\
=37
8a\L
16a\L
16a\JJ
4a\
=38
12a\L
12g#\
12f#\J
4f#\
=39
4e\
4c#\
=40
12c#\L
12B\
12B\J
4B\
=41
4G#\
4F#\
==
*-
